web-app/src/images/chip.svg

<?xml version="1.0" encoding="UTF-8" standalone="no"?>
<svg
   xmlns:dc="http://purl.org/dc/elements/1.1/"
   xmlns:cc="http://creativecommons.org/ns#"
   xmlns:rdf="http://www.w3.org/1999/02/22-rdf-syntax-ns#"
   xmlns:svg="http://www.w3.org/2000/svg"
   xmlns="http://www.w3.org/2000/svg"
   version="1.1"
   id="Capa_1"
   x="0px"
   y="0px"
   viewBox="0 0 212.03506 212.03423"
   xml:space="preserve"
   width="212.03505"
   height="212.03423"><metadata
   id="metadata132"><rdf:RDF><cc:Work
       rdf:about=""><dc:format>image/svg+xml</dc:format><dc:type
         rdf:resource="http://purl.org/dc/dcmitype/StillImage" /><dc:title></dc:title></cc:Work></rdf:RDF></metadata><defs
   id="defs130" />
<g
   id="g95"
   transform="matrix(0.71518199,0,0,0.71518199,1.0682816e-4,-4.8375434e-4)">
	<path
   d="M 244.63,35.621 C 222.859,16.986 197.248,5.766 170.863,1.719 121.871,-5.797 70.223,11.421 35.622,51.847 c -53.236,62.198 -45.972,155.773 16.226,209.01 21.771,18.634 47.381,29.853 73.766,33.901 48.991,7.517 100.641,-9.703 135.241,-50.13 C 314.091,182.431 306.826,88.856 244.63,35.621 Z m 28.731,155.62 -45.305,-15.618 c 6.102,-17.803 6.028,-37.107 0.014,-54.724 l 45.257,-15.575 c 3.577,10.453 5.862,21.429 6.74,32.741 1.422,18.309 -0.915,36.323 -6.706,53.176 z m 2.544,-87.183 c 0,-0.003 0,-0.005 0,-0.008 0,0.003 0,0.005 0,0.008 z m -27.97,-42.586 -36.069,31.332 c -2.669,-3.055 -5.579,-5.961 -8.752,-8.677 -11.467,-9.814 -24.81,-15.995 -38.637,-18.692 l 9.095,-46.741 c 22.33,4.33 43.21,14.294 60.635,29.209 4.94,4.228 9.521,8.766 13.728,13.569 z M 103.251,23.983 c 6.428,-2.315 13.021,-4.109 19.71,-5.388 l 9.087,46.843 C 114.259,68.905 97.464,78.089 84.655,92.779 L 48.55,61.38 C 63.334,44.416 82.206,31.568 103.251,23.983 Z m -80.127,81.253 45.297,15.617 c -6.102,17.803 -6.028,37.105 -0.015,54.723 l -45.295,15.588 c -3.562,-10.441 -5.837,-21.4 -6.713,-32.688 -1.422,-18.325 0.922,-36.366 6.726,-53.24 z m 25.343,129.83 36.145,-31.395 c 2.669,3.056 5.58,5.964 8.754,8.68 11.466,9.814 24.808,15.993 38.634,18.691 l -9.143,46.997 c -22.325,-4.348 -43.185,-14.422 -60.604,-29.333 -4.965,-4.248 -9.564,-8.808 -13.786,-13.64 z m 144.736,37.569 c -6.409,2.309 -12.986,4.11 -19.658,5.403 l -9.117,-47 c 17.789,-3.467 34.585,-12.651 47.394,-27.342 l 36.121,31.409 c -14.789,16.982 -33.686,29.942 -54.74,37.53 z"
   id="path81" />
	<circle
   cx="93.372002"
   cy="53.498001"
   r="8"
   id="circle83" />
	<circle
   cx="38.757999"
   cy="148.382"
   r="8"
   id="circle85" />
	<circle
   cx="93.623001"
   cy="243.123"
   r="8"
   id="circle87" />
	<circle
   cx="203.105"
   cy="242.97701"
   r="8.0010004"
   id="circle89" />
	<circle
   cx="257.71701"
   cy="148.091"
   r="8"
   id="circle91" />
	<circle
   cx="202.853"
   cy="53.351002"
   r="8"
   id="circle93" />
</g>
</svg>

<?xml version="1.0" encoding="iso-8859-1"?>
<!-- Generator: Adobe Illustrator 19.0.0, SVG Export Plug-In . SVG Version: 6.00 Build 0)  -->
<svg version="1.1" id="Capa_1" xmlns="http://www.w3.org/2000/svg" xmlns:xlink="http://www.w3.org/1999/xlink" x="0px" y="0px"
	 viewBox="0 0 296.477 296.477" style="enable-background:new 0 0 296.477 296.477;" xml:space="preserve">
<g>
	<path d="M244.63,35.621c-21.771-18.635-47.382-29.855-73.767-33.902C121.871-5.797,70.223,11.421,35.622,51.847
		c-53.236,62.198-45.972,155.773,16.226,209.01c21.771,18.634,47.381,29.853,73.766,33.901
		c48.991,7.517,100.641-9.703,135.241-50.13C314.091,182.431,306.826,88.856,244.63,35.621z M273.361,191.241l-45.305-15.618
		c6.102-17.803,6.028-37.107,0.014-54.724l45.257-15.575c3.577,10.453,5.862,21.429,6.74,32.741
		C281.489,156.374,279.152,174.388,273.361,191.241z M275.905,104.058c0-0.003,0-0.005,0-0.008
		C275.905,104.053,275.905,104.055,275.905,104.058z M247.935,61.472l-36.069,31.332c-2.669-3.055-5.579-5.961-8.752-8.677
		c-11.467-9.814-24.81-15.995-38.637-18.692l9.095-46.741c22.33,4.33,43.21,14.294,60.635,29.209
		C239.147,52.131,243.728,56.669,247.935,61.472z M103.251,23.983c6.428-2.315,13.021-4.109,19.71-5.388l9.087,46.843
		c-17.789,3.467-34.584,12.651-47.393,27.341L48.55,61.38C63.334,44.416,82.206,31.568,103.251,23.983z M23.124,105.236
		l45.297,15.617c-6.102,17.803-6.028,37.105-0.015,54.723l-45.295,15.588c-3.562-10.441-5.837-21.4-6.713-32.688
		C14.976,140.151,17.32,122.11,23.124,105.236z M48.467,235.066l36.145-31.395c2.669,3.056,5.58,5.964,8.754,8.68
		c11.466,9.814,24.808,15.993,38.634,18.691l-9.143,46.997c-22.325-4.348-43.185-14.422-60.604-29.333
		C57.288,244.458,52.689,239.898,48.467,235.066z M193.203,272.635c-6.409,2.309-12.986,4.11-19.658,5.403l-9.117-47
		c17.789-3.467,34.585-12.651,47.394-27.342l36.121,31.409C233.154,252.087,214.257,265.047,193.203,272.635z"/>
	<circle cx="93.372" cy="53.498" r="8"/>
	<circle cx="38.758" cy="148.382" r="8"/>
	<circle cx="93.623" cy="243.123" r="8"/>
	<circle cx="203.105" cy="242.977" r="8.001"/>
	<circle cx="257.717" cy="148.091" r="8"/>
	<circle cx="202.853" cy="53.351" r="8"/>
</g>
<g>
</g>
<g>
</g>
<g>
</g>
<g>
</g>
<g>
</g>
<g>
</g>
<g>
</g>
<g>
</g>
<g>
</g>
<g>
</g>
<g>
</g>
<g>
</g>
<g>
</g>
<g>
</g>
<g>
</g>
</svg>
